Yaru++/devices/symbolic/uninterruptible-power-supply-symbolic.svg

<?xml version="1.0" encoding="UTF-8" standalone="no"?>
<svg
   xmlns:osb="http://www.openswatchbook.org/uri/2009/osb"
   xmlns:dc="http://purl.org/dc/elements/1.1/"
   xmlns:cc="http://creativecommons.org/ns#"
   xmlns:rdf="http://www.w3.org/1999/02/22-rdf-syntax-ns#"
   xmlns:svg="http://www.w3.org/2000/svg"
   xmlns="http://www.w3.org/2000/svg"
   xmlns:sodipodi="http://sodipodi.sourceforge.net/DTD/sodipodi-0.dtd"
   xmlns:inkscape="http://www.inkscape.org/namespaces/inkscape"
   height="16"
   width="16"
   version="1.1"
   id="svg8"
   sodipodi:docname="uninterruptible-power-supply-symbolic.svg"
   inkscape:version="0.92.4 (5da689c313, 2019-01-14)">
  <metadata
     id="metadata14">
    <rdf:RDF>
      <cc:Work
         rdf:about="">
        <dc:format>image/svg+xml</dc:format>
        <dc:type
           rdf:resource="http://purl.org/dc/dcmitype/StillImage" />
        <dc:title></dc:title>
      </cc:Work>
    </rdf:RDF>
  </metadata>
  <defs
     id="defs12">
    <linearGradient
       osb:paint="solid"
       id="linearGradient5606">
      <stop
         style="stop-color:#000000;stop-opacity:1;"
         offset="0"
         id="stop5608" />
    </linearGradient>
    <linearGradient
       osb:paint="solid"
       id="linearGradient4526">
      <stop
         style="stop-color:#ffffff;stop-opacity:1;"
         offset="0"
         id="stop4528" />
    </linearGradient>
    <linearGradient
       osb:paint="gradient"
       id="linearGradient3600-4">
      <stop
         style="stop-color:#f4f4f4;stop-opacity:1"
         offset="0"
         id="stop3602-7" />
      <stop
         style="stop-color:#dbdbdb;stop-opacity:1"
         offset="1"
         id="stop3604-6" />
    </linearGradient>
  </defs>
  <sodipodi:namedview
     pagecolor="#ffffff"
     bordercolor="#666666"
     borderopacity="1"
     objecttolerance="10"
     gridtolerance="10"
     guidetolerance="10"
     inkscape:pageopacity="0"
     inkscape:pageshadow="2"
     inkscape:window-width="1591"
     inkscape:window-height="782"
     id="namedview10"
     showgrid="true"
     inkscape:zoom="40.333333"
     inkscape:cx="8"
     inkscape:cy="8.5"
     inkscape:window-x="0"
     inkscape:window-y="27"
     inkscape:window-maximized="0"
     inkscape:current-layer="g6">
    <inkscape:grid
       type="xygrid"
       id="grid857" />
  </sodipodi:namedview>
  <g
     color="#000"
     fill="gray"
     id="g6">
    <path
       d="m 3,12.338 c 0.01,0.839 -0.015,1.451 0.262,1.953 0.138,0.251 0.373,0.45 0.666,0.56 C 4.22,14.961 4.568,15 5.006,15 H 11 c 0.438,0 0.786,-0.039 1.078,-0.148 0.293,-0.11 0.526,-0.31 0.664,-0.56 C 13.019,13.789 12.99,13.177 13,12.338 V 3.631 C 12.99,2.792 13.019,2.178 12.742,1.676 12.594541,1.4163368 12.358998,1.2180406 12.078,1.117 11.786,1.007 11.438,1 11,1 H 10 V 1 H 6 V 1 H 5.006 C 4.568,1 4.22,1.007 3.928,1.117 3.635,1.227 3.4,1.425 3.262,1.676 2.985,2.178 3.01,2.792 3,3.631 v 8.705 z M 4,12.324 V 3.633 C 4.01,2.78 4.04,2.335 4.137,2.158 4.1709944,2.1078499 4.2210902,2.0708072 4.279,2.053 4.341,2.03 4.579,2 5.006,2 H 11 c 0.427,0 0.664,0.03 0.727,0.053 0.05744,0.017697 0.106929,0.054817 0.14,0.105 0.095,0.173 0.123,0.618 0.133,1.475 v 8.705 c -0.01,0.854 -0.038,1.298 -0.133,1.47 -0.016,0.03 -0.055,0.074 -0.14,0.106 C 11.604,13.96 11.378,14 11,14 H 5.006 C 4.628,14 4.402,13.96 4.279,13.914 4.2210902,13.896193 4.1709944,13.85915 4.137,13.809 4.039,13.631 4.01,13.189 4,12.324 Z"
       font-weight="400"
       overflow="visible"
       style="font-weight:400;line-height:normal;font-family:sans-serif;font-variant-ligatures:none;font-variant-position:normal;font-variant-caps:normal;font-variant-numeric:normal;font-variant-alternates:normal;font-feature-settings:normal;text-indent:0;text-align:start;text-decoration:none;text-decoration-line:none;text-decoration-style:solid;text-decoration-color:#000000;text-transform:none;white-space:normal;shape-padding:0;overflow:visible;isolation:auto;mix-blend-mode:normal;marker:none"
       id="path4"
       inkscape:connector-curvature="0"
       sodipodi:nodetypes="cccssccccccsccccscccccccccssccccccssccc" />
    <g
       id="g855"
       transform="translate(-13.92369,-2.1561143)">
      <g
         transform="translate(-773.00024,187)"
         style="display:inline"
         label="status"
         id="layer9" />
      <g
         transform="translate(-532.00004,-180)"
         style="display:inline"
         id="layer2" />
      <g
         transform="translate(-532.00004,-180)"
         style="display:inline"
         id="layer4" />
      <g
         transform="translate(-532.00004,-180)"
         style="display:inline"
         id="g1812" />
      <g
         transform="translate(-532.00004,-180)"
         style="display:inline"
         id="g6217" />
      <g
         transform="translate(-532.00004,-180)"
         style="display:inline"
         id="layer3" />
      <g
         transform="translate(-532.00004,-180)"
         style="display:inline"
         id="g1833">
        <path
           style="display:inline;opacity:1;fill:#808080;fill-opacity:1;stroke:none;stroke-width:0.99980223;enable-background:new"
           d="M 5 2.5 L 5 3.5 L 9 3.5 L 9 2.5 L 5 2.5 z M 10 2.5 L 10 3.5 L 11 3.5 L 11 2.5 L 10 2.5 z M 8.5 3.640625 L 6 9.140625 L 7.5 9.140625 L 7.5 13.640625 L 10 8.140625 L 8.5 8.140625 L 8.5 3.640625 z "
           transform="translate(545.92373,182.15611)"
           id="path953-6" />
      </g>
      <g
         transform="translate(-532.00004,-180)"
         style="display:inline"
         id="layer1" />
    </g>
  </g>
</svg>

<svg height="16" width="16" xmlns="http://www.w3.org/2000/svg"><g fill="#808080"><path d="m3 12.338c.01.839-.015 1.451.262 1.953.138.251.373.45.666.56.292.11.64.149 1.078.149h5.994c.438 0 .786-.039 1.078-.148.293-.11.526-.31.664-.56.277-.503.248-1.115.258-1.954v-8.707c-.01-.839.019-1.453-.258-1.955-.147459-.2596632-.383002-.4579594-.664-.559-.292-.11-.64-.117-1.078-.117h-1-4-.994c-.438 0-.786.007-1.078.117-.293.11-.528.308-.666.559-.277.502-.252 1.116-.262 1.955v8.705zm1-.014v-8.691c.01-.853.04-1.298.137-1.475.0339944-.0501501.0840902-.0871928.142-.105.062-.023.3-.053.727-.053h5.994c.427 0 .664.03.727.053.05744.017697.106929.054817.14.105.095.173.123.618.133 1.475v8.705c-.01.854-.038 1.298-.133 1.47-.016.03-.055.074-.14.106-.123.046-.349.086-.727.086h-5.994c-.378 0-.604-.04-.727-.086-.0579098-.017807-.1080056-.05485-.142-.105-.098-.178-.127-.62-.137-1.485z"/><path d="m5 2.5v1h4v-1zm5 0v1h1v-1zm-1.5 1.140625-2.5 5.5h1.5v4.5l2.5-5.5h-1.5z" fill="#808080" transform="translate(0 -.000004)"/></g></svg>
